!!!!SEGMENT: pl-wn--mus-iii-65-947-cim--008_sowinski-wojciech--swiety-wojciech-meczennik-no-7-chor-na-same-glosy.krn
!!!cenid: 18xx:3601
!!!COM: Sowiński, Wojciech
!!!COM-rismID: pe30008543
!!!CDT: ~1803-1880/03/05
!!!CNT:
!!!GTL: Święty Wojciech męczennik
!!!OTL: No. 7. Chor na same głosy
!!!OMV: 008
!!!PDT: 1877
!!!AGN:
!!!SMS-siglum: PL-Wn
!!!SMS-shelfmark: Mus.III.65.947 Cim.
!!!SMS-shelfwork: 001-008 G
!!!SMS-variant:
!!!SMS-altvar:
!!!NIFC-rismSourceID:
!!!NIFC-rismChildID:
!!!NIFC-islandoraID: none
!!!URL-pdf-islandora:
!!!URL-scan: https://polona.pl/item/swiety-wojciech-meczennik-oratorjo-w-trzech-czesciach-dzielo-66-spiew-z-fortepianem,MTkzODI1Mzc/242/#item @EN{Scan on Polona} @PL{Skany w portalu Polona}
!!!ONB-nifc: UWAGA: oratorium zawiera w źródle 28 numerów podzielonych na 30 plików (rozdzielenie w No. 6 - osobno Recitativo oraz Aria matki i No. 10 - osobno Recitativo, arja i chór oraz Sen). Polecam widok miniatur na Polonie. Uwaga co do obsady: prosimy umieszczać tylko partie występujące w danym numerze (nie całą obsadę oratorium)
!!!AIN: 4 empty
!!!key:
**kern	**text	**dynam	**kern	**text	**dynam	**kern	**text	**dynam	**kern	**text	**dynam
*part4	*part4	*part4	*part3	*part3	*part3	*part2	*part2	*part2	*part1	*part1	*part1
*staff4	*staff4	*	*staff3	*staff3	*	*staff2	*staff2	*	*staff1	*staff1	*
*Iempty	*	*	*Iempty	*	*	*Iempty	*	*	*Iempty	*	*
*I"Bas.	*	*	*I"Baryton.	*	*	*I"2.Tenor.	*	*	*I"1.Tenor.	*	*
*I'B	*	*	*I'Bar	*	*	*I'T2	*	*	*I'T1	*	*
*ICvox	*	*	*ICvox	*	*	*ICvox	*	*	*ICvox	*	*
*clefF4	*	*	*clefG2	*	*	*clefG2	*	*	*clefG2	*	*
*	*	*	*ITrd8c12	*	*	*ITrd8c12	*	*	*ITrd8c12	*	*
*k[b-e-a-]	*	*	*k[b-e-a-]	*	*	*k[b-e-a-]	*	*	*k[b-e-a-]	*	*
*E-:	*	*	*E-:	*	*	*E-:	*	*	*E-:	*	*
*M4/4	*	*	*M4/4	*	*	*M4/4	*	*	*M4/4	*	*
*met(c)	*	*	*met(c)	*	*	*met(c)	*	*	*met(c)	*	*
*>[A,B,B1,B,B2]	*	*	*	*	*	*	*	*	*	*	*
*>A	*	*	*	*	*	*	*	*	*	*	*
=1	=1	=1	=1	=1	=1	=1	=1	=1	=1	=1	=1
*	*	*	*	*	*	*	*	*	*xywh-#59:112,461,1930,288	*	*
*	*	*	*	*	*	*xywh-#59:142,715,1904,258	*	*	*	*	*
*	*	*	*xywh-#59:125,922,1954,258	*	*	*	*	*	*	*	*
*xywh-#59:198,1122,1883,243	*	*	*	*	*	*	*	*	*	*	*
!LO:TX:a:rj:t=Moderato	!	!LO:DY:rj	!LO:TX:a:rj:t=Moderato	!	!LO:DY:rj	!LO:TX:a:rj:t=Moderato	!	!LO:DY:rj	!LO:TX:a:rj:t=Moderato	!	!LO:DY:rj
4E-\	Mat-	p	4G/	Mat-	p	4B-\	Mat-	p	4B-\	Mat-	p
4E-\	-ko	.	4G/	-ko	.	4B-\	-ko	.	4e-\	-ko	.
4E-\	bied-	.	4G/	bied-	.	4B-\	bied-	.	4e-\	bied-	.
4E-\	-na	.	4G/	-na	.	4B-\	-na	.	4e-\	-na	.
=2	=2	=2	=2	=2	=2	=2	=2	=2	=2	=2	=2
4E-\	módl	<	4G/	módl	<	4B-\	módl	<	4e-\	módl	<
8BB-/	się	.	8A-/	się	.	8B-\	się	.	8d\	się	.
8BB-/	ze	[	8G/	ze	[	8B-\	ze	[	8e-\	ze	[
!LO:TX:t=P:problem=diminuendo like accent	!	!	!LO:TX:t=P:problem=diminuendo like accent	!	!	!LO:TX:t=P:problem=diminuendo like accent	!	!	!LO:TX:t=P:problem=diminuendo like accent	!	!
2BB-/	łza-	>]	2A-/	łza-	>]	2d\	łza-	>]	2f\	łza-	>]
=3	=3	=3	=3	=3	=3	=3	=3	=3	=3	=3	=3
!	!	!LO:DY:rj	!	!	!LO:DY:rj	!	!	!LO:DY:rj	!	!	!LO:DY:rj
1E-;	-mi	p	1G;	-mi	p	1e-;	-mi	p	1e-;	-mi	p
=4	=4	=4	=4	=4	=4	=4	=4	=4	=4	=4	=4
4E-\	u-	.	4B-/	u-	.	4G/	u-	.	4B-\	u-	.
2E-\	-klę-	.	8G/	-klę	.	2B-/	-klę-	.	2e-\	-klę-	.
.	.	.	8F#X/	.	.	.	.	.	.	.	.
.	.	.	2G/	knij	.	.	.	.	.	.	.
4E-\	-knij	.	.	.	.	(8c\L	-knij	.	4e-\	-knij	.
.	.	.	.	.	.	8B-\J)	.	.	.	.	.
=5	=5	=5	=5	=5	=5	=5	=5	=5	=5	=5	=5
4E-\	przy	.	4r	.	.	4G/	przy	.	4e-\	przy	.
4GG/	grom-	.	4G/	przy	.	(8B/L	grom	.	(8d\L	grom	.
.	.	.	.	.	.	8A/J)	.	.	8c\J)	.	.
[4GG/	-ni-	.	4G/	grom-	.	(4.B\	ni-	.	(4.d^\	ni-	.
4GG/]	.	.	4F/	-ni-	.	.	.	.	.	.	.
.	.	.	.	.	.	8c\)	.	.	8c\)	.	.
!!LO:LB:g=original
=6	=6	=6	=6	=6	=6	=6	=6	=6	=6	=6	=6
*	*	*	*	*	*	*	*	*	*xywh-#59:153,1391,1896,234	*	*
*	*	*	*	*	*	*xywh-#59:131,1602,1922,253	*	*	*	*	*
*	*	*	*xywh-#59:129,1817,1963,230	*	*	*	*	*	*	*	*
*xywh-#59:142,2002,1915,243	*	*	*	*	*	*	*	*	*	*	*
1C;	-cy	pp	1E-;	-cy	pp	1c;	-cy	pp	1c;	-cy	pp
=7	=7	=7	=7	=7	=7	=7	=7	=7	=7	=7	=7
4E-\	U	.	4G/	U	.	4B-\	U	.	4B-\	U	.
8E-\	stóp	.	8G/	stóp	.	8B-\	stóp	.	8e-\	stóp	.
8E-\	oł-	.	8A-/	oł-	.	8B-\	oł-	.	8e-\	oł-	.
4E-\	-ta-	.	4G/	-ta-	.	4B-\	-ta-	.	4e-\	-ta-	.
4E-\	-rza	.	4G/	-rza	.	4B-\	-rza	.	4e-\	-rza	.
=8	=8	=8	=8	=8	=8	=8	=8	=8	=8	=8	=8
(4E-\	chodź	.	(4G/	chodź	.	4.B-\	chodź	<	(4e-\	chodź	<
8BB-/)	.	<	8A-/)	.	<	.	.	.	8d\)	.	.
8BB-/	zaś-	[	8G/	zaś-	[	8B-\	zaś-	[	8e-\	zaś-	[
!LO:TX:t=P:problem=diminuendo like accent	!	!	!LO:TX:t=P:problem=diminuendo like accent	!	!	!LO:TX:t=P:problem=diminuendo like accent	!	!	!LO:TX:t=P:problem=diminuendo like accent	!	!
4.BB-/	-pie-	>]	4.A-/	-pie-	>]	(4B-\	-pie-	>]	4f\	-pie-	>]
.	.	.	.	.	.	8d\)	.	.	8g\	.	.
8BB-/	-wać	.	8A-/	-wać	.	8d\	-wać	.	8f\	-wać	.
=9	=9	=9	=9	=9	=9	=9	=9	=9	=9	=9	=9
!	!	!LO:DY:rj	!	!	!LO:DY:rj	!	!	!LO:DY:rj	!	!	!LO:DY:rj
2E-\	z na-	p	2G/	z na-	p	2e-\	z na-	p	2e-\	z na-	p
2E-;\	-mi	.	2G;/	-mi	.	2e-;\	-mi	.	2e-;\	-mi	.
=10	=10	=10	=10	=10	=10	=10	=10	=10	=10	=10	=10
4E-\	Pieśń	.	4G/	Pieśń	.	4B-\	Pieśń	.	4B-\	Pieśń	.
4E-\	do	.	4G/	do	.	4B-\	do	.	4e-\	do	.
(4E-/	Bo-	.	2G/	Bo-	.	(8B-\L	Bo-	.	(4e-\	Bo-	.
.	.	.	.	.	.	8c\J	.	.	.	.	.
4GG/)	.	.	.	.	.	4B-\)	.	.	4d\)	.	.
=11	=11	=11	=11	=11	=11	=11	=11	=11	=11	=11	=11
(8C\L	-ga-	.	4.G/	-ga-	.	4c\	-ga-	.	4e-\	-ga-	.
8D\J)	.	.	.	.	.	.	.	.	.	.	.
(8E-\L	-ro-	.	.	.	.	(8B-\L	-ro-	<	(8d\L	-ro-	<
8F\J)	.	.	8F/	-ro-	.	8A\J)	.	.	8c\J)	.	.
2F\	-dzi-	.	(4.F/	-dzi-	.	2A\	-dzi-	[	2c\	-dzi-	[
.	.	.	8E-/)	.	.	.	.	.	.	.	.
!!LO:LB:g=original
=12	=12	=12	=12	=12	=12	=12	=12	=12	=12	=12	=12
*	*	*	*	*	*	*	*	*	*xywh-#59:54,2205,2113,273	*	*
*	*	*	*	*	*	*xywh-#59:132,2433,1887,241	*	*	*	*	*
*	*	*	*xywh-#59:156,2653,1853,234	*	*	*	*	*	*	*	*
*xywh-#59:119,2821,2036,273	*	*	*	*	*	*	*	*	*	*	*
!	!	!	!	!	!	!	!	!	!	!	!LO:DY:rj
2BB-;/	-cy!	.	2D;/	-cy!	.	2B-;\	-cy!	.	2B-;\	-cy!	pp
4r	.	.	4r	.	.	4r	.	.	4r	.	.
4ryy	.	.	4ryy	.	.	4ryy	.	.	4ryy	.	.
=13	=13	=13	=13	=13	=13	=13	=13	=13	=13	=13	=13
!	!	!LO:DY:rj	!	!	!LO:DY:rjLO:DY:rj	!	!	!LO:DY:rj	!	!	!
2AA-/	Bo-	f	2A-/	Bo-	f	2c\	Bo-	f	1r	.	.
4AA-/	-ga-	.	4A-/	-ga-	.	4c\	-ga-	.	.	.	.
4AA-/	-ro-	.	4A-/	-ro-	.	4c\	-ro-	.	.	.	.
=14	=14	=14	=14	=14	=14	=14	=14	=14	=14	=14	=14
4AA-/	-dzi-	.	4A-/	-dzi-	.	4c\	-dzi-	.	4r	.	.
4A-\	-ca	.	4A-/	-ca	.	4c\	-ca	.	4c\	O	<
(8F\L	dzie-	.	(8F/L	dzie-	.	4.c\	dzie-	.	(8a-\L	Bo-	.
8G\	.	.	8G/	.	.	.	.	.	8g\J)	.	.
8A-\J)	.	.	8A-/J)	.	.	.	.	.	8f\	-ga-	[
8An\	-wi-	.	8A/	-wi-	.	8c\	-wi-	.	8e-\	-ro-	.
=15	=15	=15	=15	=15	=15	=15	=15	=15	=15	=15	=15
[2B-\	-ca	.	2.B-\	-ca	.	2B-\	-ca	.	4d\	-dzi-	.
.	.	.	.	.	.	.	.	.	4d\	-ca	.
8B-\]	.	.	.	.	.	2r	.	.	8r	.	p
8A-X\	Bo-	>	.	.	.	.	.	.	8B-\	dzie-	.
8G\	-giem	.	4r	.	.	.	.	.	8c\	-wi-	.
8F\	sła-	.	.	.	.	.	.	.	8d\	-ca	.
=16	=16	=16	=16	=16	=16	=16	=16	=16	=16	=16	=16
!	!	!LO:DY:rj	!	!	!LO:DY:rj	!	!	!LO:DY:rj	!	!	!LO:DY:rj
2E-\	-wio-	p	2G/	Bo-	p	2B-\	Bo-	p	2e-\	Bo-	p
4E-\	-na	.	4B-/	-giem	.	4G/	-giem	.	4e-\	-giem	.
4E-\	sła-	.	4G/	sła-	.	4B-\	sła-	.	4e-\	sła-	.
=17	=17	=17	=17	=17	=17	=17	=17	=17	=17	=17	=17
(8E-\L	-wio-	.	(4E-/	-wio-	.	(8G/L	-wio-	.	2e-\	-wio-	<
8G\)	.	.	.	.	.	8B-/J)	.	.	.	.	.
(8F\	.	.	8F/L	.	.	(8A-/L	-na	.	.	.	.
8E-\J)	.	.	8G/J)	.	.	8G/J)	.	.	.	.	.
4E-\	-na	.	4A-/	-na	.	2F/	Ma-	.	4e-^\	-na	[
4BB-/	Ma-	.	(8B-/L	Ma-	.	.	.	.	(8d\L	Ma-	.
.	.	.	8A-/J)	.	.	.	.	.	8c\J)	.	.
!!LO:PB:g=original
=18	=18	=18	=18	=18	=18	=18	=18	=18	=18	=18	=18
*	*	*	*	*	*	*	*	*	*xywh-#60:380,181,1997,284	*	*
*	*	*	*	*	*	*xywh-#60:423,428,1924,253	*	*	*	*	*
*	*	*	*xywh-#60:414,663,1902,253	*	*	*	*	*	*	*	*
*xywh-#60:399,880,2006,301	*	*	*	*	*	*	*	*	*	*	*
!	!	!LO:DY:rj	!	!	!LO:DY:rj	!	!	!LO:DY:rj	!	!	!LO:DY:rj
(4.BB-/	-ry-	pp	(4.F/	-ry-	pp	(4.A-/	-ry-	pp	(4.d\	-ry-	pp
8E-\)	.	.	8G/)	.	.	8G/)	.	.	8e-\)	.	.
2E-;\	-a!	.	2E-;/	-a!	.	2G;/	-a!	.	2e-;\	-a!	.
=19	=19	=19	=19	=19	=19	=19	=19	=19	=19	=19	=19
!	!	!LO:DY:rj	!	!	!LO:DY:rj	!	!	!LO:DY:rj	!	!	!LO:DY:rj
2AA-/	Bo-	f	2A-/	Bo-	f	2A-/	Bo-	f	2c\	Bo-	f
4AA-/	-ga-	.	4A-/	-ga-	.	4A-/	-ga-	.	4c\	-ga-	.
4A-\	-ro-	.	4A-/	-ro-	.	4A-/	-ro-	.	4c\	-ro-	.
=20	=20	=20	=20	=20	=20	=20	=20	=20	=20	=20	=20
4A-\	-dzi-	.	4A-/	-dzi-	.	4A-/	-dzi-	.	4c\	-dzi-	.
4G\	-ca	.	4B-/	-ca	.	4E/	-ca	.	4c\	-ca	.
(8F\L	dzie-	.	4.A-/	dzie-	.	4.F/	dzie-	.	(8.a-\L	dzie-	.
8G\	.	.	.	.	.	.	.	.	.	.	.
.	.	.	.	.	.	.	.	.	16g\K	.	.
8A-\J)	.	.	.	.	.	.	.	.	8f\J)	.	.
8An\	-wi-	.	8A/	-wi-	.	8F/	-wi-	.	8f\	-wi-	.
=21	=21	=21	=21	=21	=21	=21	=21	=21	=21	=21	=21
[2B-\	-ca	f	2.B-\	-ca	.	2.F/	-ca	.	2.d\	-ca	.
8B-\]	.	.	.	.	.	.	.	.	.	.	.
8A-X\	Mat-	.	.	.	.	.	.	.	.	.	.
!LO:TX:a:t=rit.	!	!	!	!	!	!	!	!	!	!	!
8G\	-ko,	.	4r	.	.	4r	.	.	4r	.	.
8F\	o	.	.	.	.	.	.	.	.	.	.
=22	=22	=22	=22	=22	=22	=22	=22	=22	=22	=22	=22
!	!	!LO:DY:rj	!	!	!LO:DY:rj	!	!	!LO:DY:rj	!	!	!LO:DY:rj
4E-\	mat-	p	4B-\	Mat-	p	4G/	Mat-	p	4B-\	Mat-	p
!LO:TX:a:t=rall.	!	!	!LO:TX:a:t=rall.	!	!	!LO:TX:a:t=rall.	!	!	!LO:TX:a:t=rall.	!	!
4E-\	-ko,	.	4B-\	-ko	.	4G/	-ko	.	4e-\	-ko	.
4E-\	módl	.	4B-\	bied-	.	4G/	bied-	.	4e-\	bied-	.
4E-\	się	.	4B-\	-na	.	4G/	-na	.	4e-\	-na	.
=23	=23	=23	=23	=23	=23	=23	=23	=23	=23	=23	=23
4E-\	módl	.	4B-/	módl	.	4G/	módl	.	4e-\	módl	.
8E-\	się	<	8A-/	się	<	8F/	się	<	8d\	się	<
!	!	!LO:TX:t=P:problem=diminuendo like accent	!	!	!LO:TX:t=P:problem=diminuendo like accent	!	!	!LO:TX:t=P:problem=diminuendo like accent	!	!	!LO:TX:t=P:problem=diminuendo like accent
8E-\	ze	[ >]	8G/	ze	[ >]	8G/	ze	[ >]	8e-\	ze	[ >]
2E-\	łza-	.	2c-X\	łza-	.	2A-/	łza-	.	2f\	łza-	.
!!LO:LB:g=original
=24	=24	=24	=24	=24	=24	=24	=24	=24	=24	=24	=24
*	*	*	*	*	*	*	*	*	*xywh-#60:366,1177,2025,297	*	*
*	*	*	*	*	*	*xywh-#60:429,1460,1926,230	*	*	*	*	*
*	*	*	*xywh-#60:424,1668,1937,258	*	*	*	*	*	*	*	*
*xywh-#60:431,1903,1928,247	*	*	*	*	*	*	*	*	*	*	*
2.E-;\	-mi	.	2.B-;\	-mi	.	2.G;/	-mi	.	2.e-;\	-mi	.
4r	.	.	4r	.	.	4r	.	.	4r	.	.
=25	=25	=25	=25	=25	=25	=25	=25	=25	=25	=25	=25
!LO:TX:a:t=a tempo.	!	!	!LO:TX:a:t=a tempo.	!	!	!LO:TX:a:t=a tempo.	!	!	!LO:TX:a:t=a tempo.	!	!
4E-\	u-	.	4B-\	u-	.	4G/	u-	.	4B-\	u-	.
2E-\	-klę-	.	2B-\	-klę-	.	2G/	-klę-	.	2e-\	-klę-	.
4E-\	-knij	.	4A/	-knij	.	4F#X/	-knij	.	4e-\	-knij	.
=26	=26	=26	=26	=26	=26	=26	=26	=26	=26	=26	=26
4E-\	przy	<	4A-X/	przy	<	4F/	przy	<	4e-\	przy	<
4BB-/	grom-	[	(8A-/L	grom-	[	(8F/L	grom-	[	(8d\L	grom-	[
.	.	.	8F/J)	.	.	8A-/J	.	.	8c\J)	.	.
!	!	!LO:TX:t=P:problem=diminuendo like accent	!	!	!LO:TX:t=P:problem=diminuendo like accent	!	!	!LO:TX:t=P:problem=diminuendo like accent	!	!	!LO:TX:t=P:problem=diminuendo like accent
2BB-/	-ni-	>]	4.A-/	-ni-	>]	(4.F/)	-ni-	>]	(4.d\	-ni-	>]
.	.	.	8G/	.	.	8A-/)	.	.	8e-\)	.	.
=27	=27	=27	=27	=27	=27	=27	=27	=27	=27	=27	=27
2E-\	-cy;	.	2G/	-cy;	.	2G/	-cy;	.	2e-\	-cy;	.
4r	.	.	4r	.	.	4r	.	.	4r	.	.
4E-\	U	p	4G/	U	p	4B-\	U	p	4e-\	U	p
*>B	*	*	*	*	*	*	*	*	*	*	*
=28!|:	=28!|:	=28!|:	=28!|:	=28!|:	=28!|:	=28!|:	=28!|:	=28!|:	=28!|:	=28!|:	=28!|:
!LO:TX:a:rj:t=[segno]	!	!	!LO:TX:a:rj:t=[segno]	!	!	!LO:TX:a:rj:t=[segno]	!	!	!LO:TX:a:rj:t=[segno]	!	!
2.E-\	stóp	.	2.F#X/	stóp	.	2.A/	stóp	.	2.e-\	stóp	.
4E-\	oł-	.	4G/	oł-	.	4B-\	oł-	.	4e-\	oł-	.
=29	=29	=29	=29	=29	=29	=29	=29	=29	=29	=29	=29
2.E-^\	-ta-	.	2.F#X^/	-ta-	.	2.A^/	-ta-	.	2.e-^\	-ta-	.
4E-\	-rza	.	4G/	-rza	.	4B-\	-rza	.	4e-\	-rza	.
=30	=30	=30	=30	=30	=30	=30	=30	=30	=30	=30	=30
2E-\	chodź	.	2G/	chodź	.	2B-\	chodź	.	2e-\	chodź	.
!	!	!LO:DY:rj	!	!	!LO:DY:rj	!	!	!LO:DY:rj	!	!	!LO:DY:rj
4D-X\	zaś-	f	4A-/	zaś-	f	4c-X\	zaś-	f	4f\	zaś-	f
8D-\	-pie-	<	8A-/	-pie-	<	8c-\	-pie-	<	8f\	-pie-	<
8D-\	-wać	[	8A-/	-wać	[	8c-\	-wać	[	8f\	-wać	[
!!LO:LB:g=original
=31	=31	=31	=31	=31	=31	=31	=31	=31	=31	=31	=31
*	*	*	*	*	*	*	*	*	*xywh-#60:362,2168,2016,301	*	*
*	*	*	*	*	*	*xywh-#60:437,2465,1924,236	*	*	*	*	*
*	*	*	*xywh-#60:424,2682,1924,243	*	*	*	*	*	*	*	*
*xywh-#60:459,2912,1891,243	*	*	*	*	*	*	*	*	*	*	*
!	!	!LO:DY:rj	!	!	!LO:DY:rj	!	!	!LO:DY:rj	!	!	!LO:DY:rj
[2GG-X/	z na-	f	[2G-X/	z na-	f	[2B-\	z na-	f	[2g-X\	z na-	f
4GG-/]	.	.	4G-/]	.	.	4B-\]	.	.	4g-\]	.	.
!	!	!LO:DY:rj	!	!	!LO:DY:rj	!	!	!LO:DY:rj	!	!	!LO:DY:rj
4C-X/	-mi	p	4G-/	-mi	p	4A\	-mi	p	4e-\	-mi	p
=32	=32	=32	=32	=32	=32	=32	=32	=32	=32	=32	=32
(4.BB-/	Pieśń	.	4.G/	Pieśń	.	(2B-\	Pieśń	.	[2e-\	Pieśń	.
8G\)	.	.	8B-/	do	.	.	.	.	.	.	.
!	!	!	!	!	!	!LO:TX:a:t=rit.	!	!	!LO:TX:a:t=rit.	!	!
(8F\L	do	.	(8A-/L	Bo-	.	4.e-\)	.	.	4.e-\]	.	.
8E-\J)	.	.	8G/J)	.	.	.	.	.	.	.	.
!LO:TX:a:t=rit.	!	!	!LO:TX:a:t=ri.	!	!	!	!	!	!	!	!
(8Dn\L	Bo-	.	8F/	-ga-	.	.	.	.	.	.	.
8C\J)	.	.	8A/	-ro-	.	8e-\	do	.	8f\	do	.
=33	=33	=33	=33	=33	=33	=33	=33	=33	=33	=33	=33
2.BB-/	-ga-	.	(4B-\	-dzi-	.	2e-\	Bo-	.	(4g\	Bo-	.
.	.	.	8c\L	.	.	.	.	.	8a-\L	.	.
.	.	.	8B-\J)	.	.	.	.	.	8g\J)	.	.
.	.	.	4A^\	-cy	.	4c^\	-ga-	.	4f^\	-ga-	.
4BB-^/	-ro-	.	4A-X/	ro-	.	4B-\	-ro-	.	(8e-\L	-ro-	.
.	.	.	.	.	.	.	.	.	8d\J)	.	.
=34	=34	=34	=34	=34	=34	=34	=34	=34	=34	=34	=34
!	!	!LO:DY:rj	!	!	!LO:DY:rj	!	!	!LO:DY:rj	!	!	!LO:DY:rj
[2.BB-/	-dzi-	p	[2.A-/	-dzi-	p	(2.B-\	-dzi-	p	(2d\	-dzi-	p
.	.	.	.	.	.	.	.	.	4g\	.	.
4BB-^/]	.	.	4A-^/]	.	.	4d^\)	.	.	4f^\)	.	.
*>B1	*	*	*	*	*	*	*	*	*	*	*
=35	=35	=35	=35	=35	=35	=35	=35	=35	=35	=35	=35
!	!	!	!	!	!	!	!	!	!LO:TX:a:t=1a	!	!
2E-;\	-cy!	.	2G;/	-cy!	.	2e-;\	-cy!	.	2e-;\	-cy!	.
4r	.	.	4r	.	.	4r	.	.	4r	.	.
4E-\	U	.	4G/	U	.	4B-\	U	.	4e-\	U	.
!LO:TX:a:t=[segno]	!	!	!LO:TX:a:t=[segno]	!	!	!LO:TX:a:t=[segno]	!	!	!LO:TX:a:t=[segno]	!	!
*>B2	*	*	*	*	*	*	*	*	*	*	*
=36:|!	=36:|!	=36:|!	=36:|!	=36:|!	=36:|!	=36:|!	=36:|!	=36:|!	=36:|!	=36:|!	=36:|!
!	!	!	!	!	!	!	!	!	!LO:TX:a:t=2a	!	!
2.E-;\	cy!	.	2.G;/	cy!	.	2.e-;\	cy!	.	2.e-;\	cy!	.
4r	.	.	4r	.	.	4r	.	.	4r	.	.
==	==	==	==	==	==	==	==	==	==	==	==
*-	*-	*-	*-	*-	*-	*-	*-	*-	*-	*-	*-
!!!system-decoration: [s1,s2,s3,s4]
!!!RDF**dynam: > = dim.
!!!ENC: Anastazja Marusiak
!!!END: 2022-02-22
!!!ENC: Leszek Kubiak
!!!END: 2022-03-02
!!!YEC: Copyright 2022 Narodowy Instytut Fryderyka Chopina (https://polishscores.org)
!!!YEM: License CC-BY-4.0 (https://creativecommons.org/licenses/by/4.0)
!!!IIIF: https://polona.pl/iiif/item/MTkzODI1Mzc/manifest.js
!!!ENC-iiif: Bartosz Żurakowski
!!!END-iiif: 2022-09-05
